hornpipes/bobbycaseys.htmlhornpipes/bobbycaseys.htmlhornpipes/bobbycaseys.htmlhornpipes/bobbycaseys.htmlhornpipes/bobbycaseys.htmlhornpipes/bobbycaseys.htmlhornpipes/bobbycaseys.htmlhornpipes/bobbycaseys.htmlhornpipes/bobbycaseys.htmlFrom <I>Masters of the Folk Violin</I>
hornpipes/bobbycaseys.htmlhornpipes/bobbycaseys.html<PRE>T:Chapel Bell, The
T:Chapel Bell, The
M:6/8
L:1/8
R:jig
D:Masters of the Folk Violin
Z:Devin McCabe
K:D
~F3 ~E3|DFA d2A|ded cAG|FAF GFE|
!~F3 EFE|DFA def|gec ABc|1dfe dAG:|2 dfe deg||
!fdA gfe|fdB AB=c|~B3 EFG|A2D FED|
!~f3 ~g3|fdB AFA|~B3 ecA|dfe deg|
!fdA gfe|fdB AB=c|~B3 BAG|AGF GFE|
!Dba gfe|fdB AB=c|~B3 ecA|dfe dAG||

%  ABC2Win Version 2.1 7/22/2000
hornpipes/bobbycaseys.htmlhornpipes/bobbycaseys.htmlhornpipes/bobbycaseys.htmlhornpipes/bobbycaseys.htmlhornpipes/bobbycaseys.htmlhornpipes/bobbycaseys.htmlhornpipes/bobbycaseys.html